X: 28
T: Gasp\'e Reel
O: trad. Qu\'ebec
R: reel
Z: 2012 John Chambers <jc:trillian.mit.edu>
D: Isidore Soucy (fiddle) & Donat Lafleur (accordion) "Quadrille du peuple 1\`ere partie" Starr 15532 A 1929.
F: http://www.collectionscanada.ca/obj/m2/f7/15992.mp3 (with 3rd part from Mony Musk)
M: C|
L: 1/8
K: D
%%staffsep 45
|: "D"f2ef e2dF | A2FA B2A2 |\
[1,3 "Em"g2fg f2eA | "A7"BABc B2A2 :|\
[2,4 "Em"g2fa gfeA | "A7"B2c2 "D"d4 :|
|: "A7"e2f2 g2fe | "D"f2g2 a4 \
|1,3 "Em"e2f2 gfec | "A7"BABc B2A2 \
:|2 "Em"e2f2 gfeA | "A7"B2c2 "D"d4 \
:|4 "G"b2a2 "Em"gfeA | "A7" B2c2 "D"d4 :|

%%sep 1 1 500

